X: 0
T: The Coleraine
B: sean kenan irish music
B: ralph
M:6/8
Q: 3/8=100
K:Aminor
V:1 
E|:"Am"EAA ABc|"Em"Bee e2d|"Am"cBA ABc|"E"BEE E2 D|
 "Am"EAA ABc|"Em"Bee e2d|"Am"cBA "E"^GAB|1 "Am"A2A A2E:|2 A2A "G"GAB||
 |:"C"c3 cdc|"G"Bgg "E5"g2^g|"Am"aed cBA|"E"^GAB E^F^G|
 "Am"A^GA "G"BAB|"C"cde "Dm"fed|"Am"cBA "E"^GAB|1 "Am"A2A "G"GAB:|2 "Am"A3 A2||
% abcbook-tune_id 17


% abcbook-boost 0
% abcbook-tablature 
% abcbook-transpose 
% abcbook-lastupdated 1666679074001
% abcbook-soundfonts 
% abcbook-repeats 1


